portal-web/docroot/html/themes/_unstyled/images/common/global.svg

<svg xmlns="http://www.w3.org/2000/svg" viewBox="0 0 512 512" enable-background="new 0 0 512 512">
    <path id="globe-icon" d="M256 50C142.23 50 50 142.23 50 256s92.23 206 206 206 206-92.23 206-206S369.77 50 256 50zm148.742 135.737h-43.585c-5.72-26.686-14.79-52.106-27.243-74.615 30.855 16.628 55.783 42.824 70.828 74.615zm12.1 104.737h-49.99c2.192-22.06 2.295-44.87.027-67.895h50.192c4.592 22.244 4.555 45.474-.23 67.894zM237.58 94.256v91.48h-48.334c8.805-35.754 24.692-68.523 48.333-91.48zM182.74 222.58h54.84v67.894h-54.807c-2.46-21.92-2.62-44.637-.034-67.895zm54.84 104.735v91.18c-23.575-22.894-39.44-55.542-48.26-91.18h48.26zm36.84 91.715v-91.715h48.82c-8.89 35.918-24.937 68.798-48.82 91.715zm55.365-128.556H274.42V222.58h55.4c2.437 21.92 2.575 44.638-.035 67.894zM274.42 185.737V93.72c23.95 22.982 40.018 55.98 48.892 92.017h-48.89zm-95.548-75.03c-12.57 22.61-21.716 48.18-27.472 75.03h-44.143c15.173-32.06 40.4-58.425 71.615-75.03zM94.928 222.58h50.75c-2.143 21.793-2.287 44.588.03 67.894h-50.55c-4.78-22.397-4.827-45.626-.23-67.895zm12.82 104.735h43.72c5.67 26.314 14.598 51.4 26.82 73.67-30.606-16.44-55.41-42.282-70.54-73.67zm226.752 73.25c12.106-22.165 20.957-47.103 26.59-73.25h43.16c-14.996 31.12-39.504 56.79-69.75 73.25z"/>
</svg>

<?xml version="1.0" encoding="utf-8"?>
<!-- License Agreement at http://iconmonstr.com/license/ -->
<!DOCTYPE svg PUBLIC "-//W3C//DTD SVG 1.1//EN" "http://www.w3.org/Graphics/SVG/1.1/DTD/svg11.dtd">
<svg version="1.1" xmlns="http://www.w3.org/2000/svg" xlink="http://www.w3.org/1999/xlink" x="0px" y="0px" viewBox="0 0 512 512" enable-background="new 0 0 512 512" space="preserve"> <path id="globe-icon" d="M256,50C142.229,50,50,142.23,50,256c0,113.771,92.229,206,206,206s206-92.229,206-206
C462,142.23,369.771,50,256,50z M404.742,185.737h-43.585c-5.721-26.686-14.791-52.106-27.243-74.615
C364.769,127.75,389.697,153.946,404.742,185.737z M416.843,290.474h-49.992c2.193-22.061,2.296-44.871,0.028-67.895h50.193
C421.664,244.824,421.627,268.054,416.843,290.474z M237.579,94.256v91.48h-48.333C198.051,149.982,213.938,117.213,237.579,94.256z
M182.739,222.579h54.84v67.895h-54.806C180.313,268.554,180.152,245.837,182.739,222.579z M237.579,327.315v91.179
c-23.574-22.893-39.44-55.541-48.26-91.179H237.579z M274.421,419.03v-91.715h48.818
C314.351,363.233,298.303,396.113,274.421,419.03z M329.785,290.474h-55.364v-67.895h55.398
C332.257,244.5,332.395,267.218,329.785,290.474z M274.421,185.737V93.72c23.948,22.982,40.017,55.981,48.891,92.017H274.421z
M178.872,110.707c-12.569,22.61-21.716,48.18-27.472,75.03h-44.143C122.43,153.677,147.657,127.312,178.872,110.707z
M94.928,222.579h50.751c-2.144,21.794-2.288,44.589,0.029,67.895H95.157C90.378,268.077,90.331,244.848,94.928,222.579z
M107.749,327.315h43.719c5.669,26.314,14.598,51.4,26.821,73.67C147.682,384.546,122.877,358.703,107.749,327.315z M334.5,400.565
c12.106-22.165,20.957-47.103,26.591-73.25h43.159C389.254,358.435,364.746,384.106,334.5,400.565z"></path> </svg>
